dist/assets/img/shipping-partners/gls.svg

<svg width="128" height="60" viewBox="0 0 128 60" fill="none" xmlns="http://www.w3.org/2000/svg">
<path d="M120.664 50.8169C124.509 50.8169 127.627 47.7243 127.627 43.9094C127.627 40.0944 124.509 37.002 120.664 37.002C116.818 37.002 113.701 40.0944 113.701 43.9094C113.701 47.7243 116.818 50.8169 120.664 50.8169Z" fill="#FFD100"/>
<path d="M21.4333 28.5642V37.6019H29.0128C27.9053 39.3258 25.4084 40.2444 23.7157 40.2444C18.0104 40.2444 15.1578 37.0183 15.1578 30.5083C15.1578 23.3196 18.9228 19.6411 26.3973 19.6411C29.364 19.6411 33.2445 20.3764 37.4087 21.6791V10.8683C36.2097 10.3591 34.385 9.9632 32.0455 9.56574C29.6491 9.16968 27.5377 9 25.7115 9C18.294 9 12.4176 10.9814 8.0254 14.9429C3.63162 18.9057 1.40625 24.2261 1.40625 30.9624C1.40625 37.1315 3.1185 41.9994 6.5413 45.5663C9.96425 49.1883 14.586 51 20.4054 51C26.2487 51 31.6179 47.9914 33.348 44.1715L33.3106 50.3197H41.7634V28.5642H21.4333Z" fill="#1D1D1B"/>
<path d="M45.9844 50.3195V9.67871H59.1072V39.735H73.4274V50.3195H45.9844Z" fill="#1D1D1B"/>
<path d="M78.2152 49.3014V38.2078C80.1554 38.8301 82.4379 39.3393 85.0054 39.7933C87.573 40.2458 89.7983 40.4721 91.6816 40.4721C94.8763 40.4721 96.5316 39.6802 96.5316 38.2643C96.5316 37.3592 96.0183 36.9052 93.6788 36.396L89.114 35.3778C81.2974 33.6226 77.6465 29.7179 77.6465 23.0948C77.6465 18.7359 79.1875 15.2838 82.2113 12.7366C85.232 10.2446 89.4547 9 94.7608 9C98.4117 9 104.005 9.73542 107.427 10.5855V21.1699C105.658 20.7173 103.548 20.2648 100.981 19.8674C98.4133 19.4713 96.4159 19.3016 94.9334 19.3016C92.1378 19.3016 90.5396 20.0936 90.5396 21.5093C90.5396 22.3578 91.2809 22.9251 92.8219 23.321L98.1282 24.5656C105.888 26.3774 109.482 30.3387 109.482 37.0749C109.482 41.3772 107.884 44.7728 104.746 47.2634C101.608 49.754 97.2713 50.9985 91.737 50.9985C86.4879 50.9985 81.1818 50.263 78.2152 49.3014Z" fill="#1D1D1B"/>
</svg>

<svg width="128" height="60" fill="none" xmlns="http://www.w3.org/2000/svg"><path d="M120.664 50.817c3.845 0 6.963-3.093 6.963-6.908 0-3.815-3.118-6.907-6.963-6.907-3.846 0-6.963 3.092-6.963 6.907s3.117 6.908 6.963 6.908z" fill="#FFD100"/><path d="M21.433 28.564v9.038h7.58c-1.108 1.724-3.605 2.642-5.297 2.642-5.706 0-8.558-3.226-8.558-9.736 0-7.188 3.765-10.867 11.24-10.867 2.966 0 6.847.735 11.01 2.038V10.87c-1.198-.51-3.023-.906-5.363-1.303C29.65 9.17 27.538 9 25.711 9c-7.417 0-13.293 1.981-17.686 5.943-4.393 3.963-6.619 9.283-6.619 16.02 0 6.169 1.713 11.036 5.135 14.603C9.964 49.188 14.586 51 20.405 51c5.844 0 11.213-3.009 12.943-6.828l-.037 6.148h8.452V28.564h-20.33zM45.984 50.32V9.678h13.123v30.056h14.32v10.584H45.984zm32.231-1.019V38.208c1.94.622 4.223 1.131 6.79 1.585 2.568.453 4.793.68 6.677.68 3.194 0 4.85-.793 4.85-2.209 0-.905-.514-1.359-2.853-1.868l-4.565-1.018c-7.817-1.755-11.468-5.66-11.468-12.283 0-4.36 1.541-7.811 4.565-10.358C85.232 10.245 89.455 9 94.761 9c3.65 0 9.244.735 12.666 1.585V21.17a67.463 67.463 0 00-6.446-1.303c-2.568-.396-4.565-.565-6.048-.565-2.795 0-4.393.792-4.393 2.207 0 .849.74 1.416 2.282 1.812l5.306 1.245c7.76 1.811 11.354 5.773 11.354 12.509 0 4.302-1.598 7.698-4.736 10.188C101.608 49.754 97.271 51 91.737 51c-5.25 0-10.555-.736-13.522-1.698z" fill="#1D1D1B"/></svg>
